X:11101
T:My Love is But a Lassie Yet
R:Reel
B:Tuneworks Tunebook (https://www.tuneworks.co.uk/)
G:Tuneworks
Z:Jon Warbrick <jon.warbrick@googlemail.com>
M:4/4
L:1/8
K:D
|: dc | "D"d2 D2F2A2 | d2 D2D2 dc | d2 D2 F2 A2 | "A"e2 E2 E2 dc | 
"D"d2 D2 F2 A2 | "G"B2 g2 f2 e2 | "A"dcBA Bcde | "D"f2 d2 d2 :|
|: fg | "D"a2 fa "A"g2 eg | "D"f2 d2 d2 fg | a2 f2 "G"gfga | "A"b2 e2 e2 fg | 
"D"a2 af g2 ge | f2 fd e2 ec | "G"dcBA "A"Bcde | "D"f2 d2 d2 :|